X: 34707
T: Road To Gateshead
R: hornpipe
M: 4/4
K: Gmajor
|d>B|"G"G>DG>B "D7"A>DF>A|"G"G>DG>B "Bm"d2B>d|"C"e.ce>f "G"g>dB>G|"Am"A>Bc>A "D7"D2 (3DEF|
"G"G>DG>B "D7"A>DF>A|"C"G>AB>G"Bm"D2G>F|"C"E>cA>G "D7"d>FA>F|"G"G2 B2 G2:|
|:B>c|"G"d>Bd>f g2 d>B|"Am"e>ce>g "D7"a2 g>f|"G"e>dc?B "C"c>BA>G|"D7"F>GA>F D2(3DEF|
"G"G>DG>B "D7"A>DF>A|"Em"G>AB>G "Bm"D2G>F|"C"E>cA>G "D"d>FA>F|"G" G2 B2 G2:|

